X: 17544
T: Hillswick
R: reel
M: 4/4
K: Gmajor
|:G2 G2 Bc d2|(ed)ef ga g2|G2 G2 (Bc) d2|cdcB A2G2:|
g2 g2 af d2|(ed)e2 (ea)ag|fdfg afd2|edef g2 d2|
g2 g2 af d2|B({c}A)Bd ef g2|G2 G2 (Bc) dg|e2 dB A2G2||

